X: 10191
T: Dinny O'Brien's
R: reel
M: 4/4
K: Dmixolydian
|fddc ABcA|dcAd cAGE|D2 D/2D/2 D ADFD|E/2F/2GAB cdeg|
fddc ABcA|dcAd cAGE|D2AD EGAB|cAGE FDD2|
fddc ABcA|dcAd cAGE|D2FD ADFD|E/2F/2GAB cdeg|
fddc ABcA|dcAd cAGE|D2AD E/2F/2GAB|cAGE FDD2|
|:fdd^c defg|ad~d2 adfd|eccB cdef|gcc/2c/2c Gceg|
fddc ABcA|dcAd cAGE|DD~D2 EGAG|cAGE EDD2:|

